nextcloudappstore/core/static/assets/img/icons/categories/multimedia-white.svg

<svg width="20" height="20" fill="none" style="-webkit-print-color-adjust:exact" version="1.1" viewBox="0 -0 20 20" xmlns="http://www.w3.org/2000/svg"><g rx="0" ry="0" fill="#000"><g class="fills"><path rx="0" ry="0" d="m7.5 10.833v-6.666c0-0.917 0.75-1.667 1.667-1.667h7.5c0.916 0 1.666 0.75 1.666 1.667v5h-2.858l-1.067-1.45c-0.05-0.075-0.15-0.075-0.2 0l-1.658 2.283c-0.05 0.05-0.15 0.058-0.2 0l-1.192-1.458c-0.05-0.059-0.141-0.059-0.191 0l-1.759 2.216c-0.066 0.075-8e-3 0.2 0.092 0.2h5.283v1.542h-5.416c-0.925 0-1.667-0.742-1.667-1.667zm-2.5 7.5v-0.833h-1.667v0.833h-1.666v-16.666h1.666v0.833h1.667v-0.833h1.992c-0.709 0.616-1.159 1.5-1.159 2.5v6.666c0 1.842 1.492 3.334 3.334 3.334h3.916c-0.858 0.691-1.416 1.733-1.416 2.916 0 0.442 0.091 0.859 0.233 1.25h-6.9zm-1.667-12.5h1.667v-1.666h-1.667v1.666zm0 3.334h1.667v-1.667h-1.667v1.667zm0 3.333h1.667v-1.667h-1.667v1.667zm1.667 3.333v-1.666h-1.667v1.666h1.667zm14.167-5v1.667h-1.667v4.583c0 1.15-0.933 2.084-2.083 2.084s-2.084-0.934-2.084-2.084 0.934-2.083 2.084-2.083c0.3 0 0.575 0.058 0.833 0.175v-4.342h2.917z" fill="#fff"/></g></g></svg>

<svg xmlns:xlink="http://www.w3.org/1999/xlink" width="20" xmlns="http://www.w3.org/2000/svg" height="20" id="screenshot-db15cf86-6f9e-8025-8002-bbab9ed6fde3" viewBox="0 -0 20 20" style="-webkit-print-color-adjust: exact;" fill="none" version="1.1"><g id="shape-db15cf86-6f9e-8025-8002-bbab9ed6fde3" rx="0" ry="0" style="fill: rgb(0, 0, 0);"><g id="shape-db15cf86-6f9e-8025-8002-bbab9ed6fde5"><g class="fills" id="fills-db15cf86-6f9e-8025-8002-bbab9ed6fde5"><path rx="0" ry="0" d="M7.500,10.833L7.500,4.167C7.500,3.250,8.250,2.500,9.167,2.500L16.667,2.500C17.583,2.500,18.333,3.250,18.333,4.167L18.333,9.167L15.475,9.167L14.408,7.717C14.358,7.642,14.258,7.642,14.208,7.717L12.550,10.000C12.500,10.050,12.400,10.058,12.350,10.000L11.158,8.542C11.108,8.483,11.017,8.483,10.967,8.542L9.208,10.758C9.142,10.833,9.200,10.958,9.300,10.958L14.583,10.958L14.583,12.500L9.167,12.500C8.242,12.500,7.500,11.758,7.500,10.833ZM5.000,18.333L5.000,17.500L3.333,17.500L3.333,18.333L1.667,18.333L1.667,1.667L3.333,1.667L3.333,2.500L5.000,2.500L5.000,1.667L6.992,1.667C6.283,2.283,5.833,3.167,5.833,4.167L5.833,10.833C5.833,12.675,7.325,14.167,9.167,14.167L13.083,14.167C12.225,14.858,11.667,15.900,11.667,17.083C11.667,17.525,11.758,17.942,11.900,18.333L5.000,18.333ZM3.333,5.833L5.000,5.833L5.000,4.167L3.333,4.167L3.333,5.833ZM3.333,9.167L5.000,9.167L5.000,7.500L3.333,7.500L3.333,9.167ZM3.333,12.500L5.000,12.500L5.000,10.833L3.333,10.833L3.333,12.500ZM5.000,15.833L5.000,14.167L3.333,14.167L3.333,15.833L5.000,15.833ZM19.167,10.833L19.167,12.500L17.500,12.500L17.500,17.083C17.500,18.233,16.567,19.167,15.417,19.167C14.267,19.167,13.333,18.233,13.333,17.083C13.333,15.933,14.267,15.000,15.417,15.000C15.717,15.000,15.992,15.058,16.250,15.175L16.250,10.833L19.167,10.833ZZ" style="fill: rgb(255, 255, 255); fill-opacity: 1;"/></g></g></g></svg>
